material/.icons/material/emby.svg

<svg xmlns="http://www.w3.org/2000/svg" viewBox="0 0 24 24"><path d="M11 2L6 7l1 1-5 5 5 5 1-1 5 5 5-5-1-1 5-5-5-5-1 1-5-5m-1 6.5l6 3.5-6 3.5v-7z"/></svg>

<?xml version="1.0" encoding="UTF-8"?><!DOCTYPE svg PUBLIC "-//W3C//DTD SVG 1.1//EN" "http://www.w3.org/Graphics/SVG/1.1/DTD/svg11.dtd"><svg xmlns="http://www.w3.org/2000/svg" xmlns:xlink="http://www.w3.org/1999/xlink" version="1.1" id="mdi-emby" width="24" height="24" viewBox="0 0 24 24"><path d="M11,2L6,7L7,8L2,13L7,18L8,17L13,22L18,17L17,16L22,11L17,6L16,7L11,2M10,8.5L16,12L10,15.5V8.5Z" /></svg>
